X: 280
T: Guan hua
%%abc-version 2.0
%%abcx-abcm2ps-target-version 5.9.1 (29 Sep 2008)
%%abc-creator hum2abc beta
%%abcx-conversion-date 2013/10/02 07:52:29
%%abc-edited-by Helmut Schaffrath
%%humdrum-veritas 1783260005
%%humdrum-veritas-data 1894853778
%%continueall 1
%%barnumbers 0
L: 1/8
M: 2/4
K: G
zd2e [I:setbarnb 1]| 
d B d/ A/ z | 
z d B B | 
d3d | 
B d d G | 
A2A F | 
A ED2 | 
F F/ G/A2 | 
F F/ G/A2 | 
F G F G | 
F G A A | 
z e d e | 
d e d B | 
d A/ A/ B d/ d/ | 
G ED2 |]  



